X: 289
T:Virgo prudentissima
N: Derived from Jos2512-Virgo_prudentissima.krn
C: Josquin des Prez
%%abc-version 2.0
%%abcx-abcm2ps-target-version 5.9.1 (29 Sep 2008)
%%abc-creator hum2abc beta
%%abcx-conversion-date 2019/02/12 16:15:53
%%abc-edited-by Jesse Rodin
%%abc-edited-by Will Watson 13/7/2011/; JR 21 Feb 2013
%%abcx-initial-encoding-date 2013/03/08/
%%humdrum-veritas 3565898167
%%humdrum-veritas-data 1220552555
%%linebreak <none>
%%barnumbers 0
L: 1/4
M: 2/1
Q: 1/2=120
%%staves [1 2 3 4]
V: 1 clef=treble
V: 2 clef=treble-8
V: 3 clef=treble-8
V: 4 clef=bass
K: F
[V:1] G8 | 
[V:2] z8 | 
[V:3] z8 | 
[V:4] z8 | 
[V:1] B8 | 
[V:2] z8 | 
[V:3] G8 | 
[V:4] z8 | 
[V:1] G4F4 | 
[V:2] z8 | 
[V:3] B8 | 
[V:4] z8 | 
[V:1] B4c4 | 
[V:2] z8 | 
[V:3] G4F4 | 
[V:4] z8 | 
[V:1] d4G2A2- | 
[V:2] z8 | 
[V:3] B4c4 | 
[V:4] z8 | 
[V:1] A2B2A2B2- | 
[V:2] z8 | 
[V:3] d8- | 
[V:4] z8 | 
[V:1] B2AGF4 | 
[V:2] z8 | 
[V:3] d8- | 
[V:4] z8 | 
[V:1] z8 | 
[V:2] G8 | 
[V:3] d8- | 
[V:4] z8 | 
[V:1] z8 | 
[V:2] B8 | 
[V:3] d8 | 
[V:4] G,,8 | 
[V:1] z8 | 
[V:2] G4F4 | 
[V:3] z8 | 
[V:4] B,,8 | 
[V:1] z8 | 
[V:2] B4c4 | 
[V:3] z8 | 
[V:4] G,,4F,,4 | 
[V:1] z8 | 
[V:2] d4G2A2- | 
[V:3] z8 | 
[V:4] B,,4C,4 | 
[V:1] z8 | 
[V:2] A2B2A2B2- | 
[V:3] z8 | 
[V:4] D,8- | 
[V:1] z8 | 
[V:2] B2AGF4 | 
[V:3] z8 | 
[V:4] D,8- | 
[V:1] d6cB | 
[V:2] z4f4- | 
[V:3] z8 | 
[V:4] D,8 | 
[V:1] A4B4 | 
[V:2] f4g4 | 
[V:3] d6cB | 
[V:4] z4G,4 | 
[V:1] c4d4 | 
[V:2] c2f4d2 | 
[V:3] A4B4 | 
[V:4] F,3E,D,4 | 
[V:1] G4z2d2- | 
[V:2] _e3dB2G2 | 
[V:3] c4d4 | 
[V:4] C,3B,,G,,4- | 
[V:1] d2c2B2c2- | 
[V:2] B2c2d2f2- | 
[V:3] G6F2 | 
[V:4] G,,4z4 | 
[V:1] cBB4A2 | 
[V:2] f2edf4 | 
[V:3] B4c4 | 
[V:4] G,4F,4 | 
[V:1] B2c3BB2- | 
[V:2] z2c3de2 | 
[V:3] d2_e3dB2 | 
[V:4] B,2A,3B,G,2 | 
[V:1] B2A2G2A2- | 
[V:2] f4z2A2- | 
[V:3] c4B2c2- | 
[V:4] F,4G,2F,2- | 
[V:1] AGG4^F2 | 
[V:2] ABc2d4 | 
[V:3] cBG2A4 | 
[V:4] F,G,E,2D,4 | 
[V:1] G8- | 
[V:2] B4_e4- | 
[V:3] G8- | 
[V:4] _E,6D,2 | 
[V:1] G8 | 
[V:2] e2d2_e2d2- | 
[V:3] G8 | 
[V:4] C,2B,,2C,2G,,2 | 
[V:1] z8 | 
[V:2] d2cBA4 | 
[V:3] D4F4- | 
[V:4] B,,3C,D,4- | 
[V:1] z8 | 
[V:2] z2D3EFG | 
[V:3] F4F4 | 
[V:4] D,4z4 | 
[V:1] z8 | 
[V:2] A2B2A2G2 | 
[V:3] F3GA2B2- | 
[V:4] D,3E,F,2G,2 | 
[V:1] z8 | 
[V:2] d8- | 
[V:3] B2AGA4 | 
[V:4] D,2G,4^F,2 | 
[V:1] G4B4- | 
[V:2] d8 | 
[V:3] G8- | 
[V:4] G,8 | 
[V:1] B4B4 | 
[V:2] G4B4- | 
[V:3] G8- | 
[V:4] z8 | 
[V:1] B3cd4 | 
[V:2] B4B4 | 
[V:3] G8- | 
[V:4] z8 | 
[V:1] G8- | 
[V:2] B3cd2_e2- | 
[V:3] G8 | 
[V:4] G,,3A,,B,,2C,2 | 
[V:1] G8 | 
[V:2] e2c2d4 | 
[V:3] z8 | 
[V:4] G,,2C,4=B,,2 | 
[V:1] E3FG2A2- | 
[V:2] c8- | 
[V:3] z2G4F2 | 
[V:4] C,3D,E,2F,2 | 
[V:1] A2F2G4 | 
[V:2] c8 | 
[V:3] c2A2G4 | 
[V:4] C,2F,4E,2 | 
[V:1] A3Bc2FG | 
[V:2] z8 | 
[V:3] F2f3ed2 | 
[V:4] F,3G,A,2B,2 | 
[V:1] A2D2E4 | 
[V:2] z8 | 
[V:3] c2B2c4 | 
[V:4] F,2B,4A,2 | 
[V:1] D4z4 | 
[V:2] B4A4 | 
[V:3] z8 | 
[V:4] B,2G,4F,2 | 
[V:1] B4A4 | 
[V:2] B2G2A4 | 
[V:3] z8 | 
[V:4] G,4F,4 | 
[V:1] B2G2A4 | 
[V:2] G4z4 | 
[V:3] B4A4 | 
[V:4] G,4F,4 | 
[V:1] G4z4 | 
[V:2] z2B2c2A2 | 
[V:3] B2G2A4 | 
[V:4] G,4F,4 | 
[V:1] z2B2c2A2 | 
[V:2] B2G2A4 | 
[V:3] G4z4 | 
[V:4] G,4F,4 | 
[V:1] B2G2AGFE | 
[V:2] G2d2fedc | 
[V:3] z2B2c2A2 | 
[V:4] G,4F,4 | 
[V:1] D2G4^F2 | 
[V:2] B2c2d4- | 
[V:3] B2G2A4 | 
[V:4] G,2E,2D,4 | 
[V:1] G3FD2_E2- | 
[V:2] d4z4 | 
[V:3] G8- | 
[V:4] G,,6C,2- | 
[V:1] EDB,2_E2D2- | 
[V:2] z8 | 
[V:3] G8 | 
[V:4] C,2G,,2C,2B,,2 | 
[V:1] DCB,2A,4 | 
[V:2] G4F4 | 
[V:3] z8 | 
[V:4] G,,A,,B,,C,D,4 | 
[V:1] z8 | 
[V:2] B4c2d2- | 
[V:3] G4F4 | 
[V:4] G,,4z4 | 
[V:1] G,4F,4 | 
[V:2] d2cBA4 | 
[V:3] B4c4 | 
[V:4] z8 | 
[V:1] B,4G,2B,2- | 
[V:2] G2B4G2 | 
[V:3] d8- | 
[V:4] z8 | 
[V:1] B,CD2G,2B,2- | 
[V:2] B3cd2G2 | 
[V:3] d8- | 
[V:4] z8 | 
[V:1] B,CD2B,2D2- | 
[V:2] B3cd2B2 | 
[V:3] d8- | 
[V:4] z8 | 
[V:1] DEF2D2F2- | 
[V:2] d3ef2d2 | 
[V:3] d8 | 
[V:4] z8 | 
[V:1] FEDCB,2F2 | 
[V:2] f3edcB2- | 
[V:3] d4d4- | 
[V:4] z8 | 
[V:1] G2A2B2G2 | 
[V:2] B2A2G4 | 
[V:3] d2c2d2e2 | 
[V:4] z8 | 
[V:1] A4D4 | 
[V:2] F6G2 | 
[V:3] f6e2 | 
[V:4] D,6E,2 | 
[V:1] z8 | 
[V:2] A4B4 | 
[V:3] d2c2e2d2 | 
[V:4] F,4G,3F, | 
[V:1] z8 | 
[V:2] A2B2G2B2 | 
[V:3] f4e2d2- | 
[V:4] D,4C,2B,,2 | 
[V:1] z8 | 
[V:2] A2G4F2 | 
[V:3] dGc4=B2 | 
[V:4] C,2_E,2D,4 | 
[V:1] E6DC | 
[V:2] G8- | 
[V:3] c8 | 
[V:4] C,8- | 
[V:1] E4D4 | 
[V:2] G8 | 
[V:3] z2G2G2G2 | 
[V:4] C,4z2G,,2 | 
[V:1] z2D2D2D2 | 
[V:2] z4z2D2 | 
[V:3] B3cd4- | 
[V:4] G,,2G,,2B,,3C, | 
[V:1] F3GA4 | 
[V:2] D2D2F3G | 
[V:3] d4z2d2- | 
[V:4] D,8 | 
[V:1] z2A4G2 | 
[V:2] A4z4 | 
[V:3] d2c2d2B2 | 
[V:4] z8 | 
[V:1] A2F2E4 | 
[V:2] z4z2A2- | 
[V:3] A4z4 | 
[V:4] z2D,4C,2 | 
[V:1] z8 | 
[V:2] A2G2A2F2 | 
[V:3] z8 | 
[V:4] D,2B,,2A,,4 | 
[V:1] G4d4 | 
[V:2] E4z4 | 
[V:3] z4G4 | 
[V:4] z8 | 
[V:1] z2d3cB2 | 
[V:2] G4d4- | 
[V:3] d4z4 | 
[V:4] z4G,,4 | 
[V:1] A2B3AG2 | 
[V:2] d8- | 
[V:3] z2d3cB2 | 
[V:4] D,4z2G,,2 | 
[V:1] F2d3cB2 | 
[V:2] d8- | 
[V:3] A2B3AG2 | 
[V:4] D,4z2G,,2 | 
[V:1] ADG4^F2 | 
[V:2] d8- | 
[V:3] F2G2A4 | 
[V:4] D,2G,,2D,4 | 
[V:1] G8 |]  
[V:2] d8 |]  
[V:3] G8 |]  
[V:4] G,,8 |]  



